X:18
T:Rossignolet Du Bois
M:6/8
L:1/8
N:La Bourre 4th edition 1929, page 34
Z:Steve Mansfield www.lesession.co.uk May 2012
K:Gm
G | G2 d (dc) B | d6 | c A B c2 d |
(B2A) G3 ||[M:9/8] G A B c2 d c B c |
d3 c d B (A3 | A6 A) z D | G3 A B c d f e |
d3 c B G F2 G | A3 c B A (G3 | !fermata!G6) z2 z |]
<end>
<start>
